icons/polaroid-2-fill.svg

<svg viewBox="0 0 24 24" fill="currentColor" xmlns="http://www.w3.org/2000/svg"><path d="M3 3.9934C3 3.44476 3.44495 3 3.9934 3H20.0066C20.5552 3 21 3.44495 21 3.9934V20.0066C21 20.5552 20.5551 21 20.0066 21H3.9934C3.44476 21 3 20.5551 3 20.0066V3.9934ZM6 17V19H18V17H6ZM5 5V7H7V5H5ZM12 12C10.8954 12 10 11.1046 10 10C10 8.89543 10.8954 8 12 8C13.1046 8 14 8.89543 14 10C14 11.1046 13.1046 12 12 12ZM12 14C14.2091 14 16 12.2091 16 10C16 7.79086 14.2091 6 12 6C9.79086 6 8 7.79086 8 10C8 12.2091 9.79086 14 12 14Z"/></svg>

<svg xmlns="http://www.w3.org/2000/svg" viewBox="0 0 24 24">
    <g>
        <path fill="none" d="M0 0h24v24H0z"/>
        <path d="M3 3.993C3 3.445 3.445 3 3.993 3h16.014c.548 0 .993.445.993.993v16.014a.994.994 0 0 1-.993.993H3.993A.994.994 0 0 1 3 20.007V3.993zM6 17v2h12v-2H6zM5 5v2h2V5H5zm7 7a2 2 0 1 1 0-4 2 2 0 0 1 0 4zm0 2a4 4 0 1 0 0-8 4 4 0 0 0 0 8z"/>
    </g>
</svg>
